packages/icons/web/add_person_filled_large.svg

<svg width="24" height="24" viewBox="0 0 24 24" fill="none" xmlns="http://www.w3.org/2000/svg">
<path fill-rule="evenodd" clip-rule="evenodd" d="M15 5.5C15 7.433 13.433 9 11.5 9C9.567 9 8 7.433 8 5.5C8 3.567 9.567 2 11.5 2C13.433 2 15 3.567 15 5.5ZM5 16.875V18C5 18.8284 5.67157 19.5 6.5 19.5H12.0907C12.0311 19.1757 12 18.8415 12 18.5C12 15.646 14.1739 13.2997 16.9561 13.0266C15.8413 11.2004 13.9053 10 11.5 10C7.5 10 5 13 5 16.875ZM14 18.5C14 17.9477 14.4477 17.5 15 17.5H16.5V16C16.5 15.4477 16.9477 15 17.5 15C18.0523 15 18.5 15.4477 18.5 16V17.5H20C20.5523 17.5 21 17.9477 21 18.5C21 19.0523 20.5523 19.5 20 19.5H18.5V21C18.5 21.5523 18.0523 22 17.5 22C16.9477 22 16.5 21.5523 16.5 21V19.5H15C14.4477 19.5 14 19.0523 14 18.5Z" fill="#212933"/>
</svg>

<svg width="24" height="24" fill="none" xmlns="http://www.w3.org/2000/svg">
    <path fill-rule="evenodd" clip-rule="evenodd" d="M15 5.5a3.5 3.5 0 11-7 0 3.5 3.5 0 017 0zM5 16.875V18a1.5 1.5 0 001.5 1.5h5.59a5.5 5.5 0 014.865-6.473C15.842 11.2 13.906 10 11.501 10c-4 0-6.5 3-6.5 6.875zm9 1.625a1 1 0 011-1h1.5V16a1 1 0 112 0v1.5H20a1 1 0 110 2h-1.5V21a1 1 0 11-2 0v-1.5H15a1 1 0 01-1-1z" fill="currentColor"/>
</svg>
